src/assets/icon-20-board.svg

<?xml version="1.0" encoding="UTF-8"?>
<svg width="20px" height="20px" viewBox="0 0 20 20" version="1.1" xmlns="http://www.w3.org/2000/svg" xmlns:xlink="http://www.w3.org/1999/xlink">
    <g id="Assets" stroke="none" stroke-width="1" fill="none" fill-rule="evenodd">
        <g id="icon-20-board" fill-rule="nonzero" fill="#27322F">
            <path d="M5,5 L5,15 L15,15 L15,5 L5,5 Z M5,3 L15,3 C16.1045695,3 17,3.8954305 17,5 L17,15 C17,16.1045695 16.1045695,17 15,17 L5,17 C3.8954305,17 3,16.1045695 3,15 L3,5 C3,3.8954305 3.8954305,3 5,3 Z M5,8 L15,8 L15,7 L5,7 L5,8 Z" id="Combined-Shape"></path>
        </g>
    </g>
</svg>

<svg width="20" height="20" xmlns="http://www.w3.org/2000/svg"><path d="M5 5v10h10V5H5zm0-2h10a2 2 0 0 1 2 2v10a2 2 0 0 1-2 2H5a2 2 0 0 1-2-2V5a2 2 0 0 1 2-2zm0 5h10V7H5v1z" fill-rule="nonzero" fill="#27322F"/></svg>
